src/icons/filter.icon.svg

<?xml version="1.0" encoding="UTF-8"?>
<svg width="24px" height="24px" viewBox="0 0 24 24" version="1.1" xmlns="http://www.w3.org/2000/svg" xmlns:xlink="http://www.w3.org/1999/xlink">
    <!-- Generator: Sketch 52.3 (67297) - http://www.bohemiancoding.com/sketch -->
    <title>IcFilter</title>
    <desc>Created with Sketch.</desc>
    <g id="IcFilter" stroke="none" stroke-width="1" fill="none" fill-rule="evenodd">
        <g id="icon">
            <polygon id="Shape" points="0 0 24 0 24 24 0 24"></polygon>
            <path d="M13.1707057,11 C13.5825421,9.83480763 14.6937812,9 16,9 C17.3062188,9 18.4174579,9.83480763 18.8292943,11 L22,11 L22,13 L18.8292943,13 C18.4174579,14.1651924 17.3062188,15 16,15 C14.6937812,15 13.5825421,14.1651924 13.1707057,13 L2,13 L2,11 L13.1707057,11 Z M5.17070571,17 C5.58254212,15.8348076 6.69378117,15 8,15 C9.30621883,15 10.4174579,15.8348076 10.8292943,17 L22,17 L22,19 L10.8292943,19 C10.4174579,20.1651924 9.30621883,21 8,21 C6.69378117,21 5.58254212,20.1651924 5.17070571,19 L2,19 L2,17 L5.17070571,17 Z M5.17070571,5 C5.58254212,3.83480763 6.69378117,3 8,3 C9.30621883,3 10.4174579,3.83480763 10.8292943,5 L22,5 L22,7 L10.8292943,7 C10.4174579,8.16519237 9.30621883,9 8,9 C6.69378117,9 5.58254212,8.16519237 5.17070571,7 L2,7 L2,5 L5.17070571,5 Z" id="Combined-Shape" fill="currentColor" fill-rule="nonzero"></path>
        </g>
    </g>
</svg>

<svg xmlns="http://www.w3.org/2000/svg" viewBox="0 0 24 24"><g fill="none" fill-rule="evenodd"><path d="M0 0h24v24H0z"/><path d="M13.17 11a3.001 3.001 0 015.66 0H22v2h-3.17a3.001 3.001 0 01-5.66 0H2v-2h11.17zm-8 6a3.001 3.001 0 015.66 0H22v2H10.83a3.001 3.001 0 01-5.66 0H2v-2h3.17zm0-12a3.001 3.001 0 015.66 0H22v2H10.83a3.001 3.001 0 01-5.66 0H2V5h3.17z" fill="currentColor" fill-rule="nonzero"/></g></svg>
